X:1
T:Title
%%score [ ( 1 2 ) ( 3 4 ) ]
L:1/8
Q:1/4=120
M:4/4
K:Bb
V:1 treble nm="Midi_74"
V:2 treble 
V:3 bass nm="Midi_74"
V:4 bass 
V:1
 B8 | d4 B4 | G8 || G8 | e4 c4 | B4"^Sir George Elvey\n(1816-1893)" A4 | B8 |] %7
V:2
 F8 | F4 F4 | E8 || F8 | E4 G4 | F4 F4 | F8 |] %7
V:3
 D8 | B,4 B,4 | B,8 || =B,8 | C4 C4 | D4 C4 | D8 |] %7
V:4
 B,,8 | B,,4 D,4 | E,8 || D,8 | C,4 E,4 | F,4 F,4 | B,,8 |] %7

